; HEADER_BLOCK_START
; generated by OrcaSlicer 2.1.0 on 2024-09-02 at 16:40:12
; total layer number: 104
; filament_density: 1.24
; filament_diameter: 1.75
; max_z_height: 18.00
; HEADER_BLOCK_END

; THUMBNAIL_BLOCK_START

;
; THUMBNAIL_BLOCK_END

; THUMBNAIL_BLOCK_START

;
; THUMBNAIL_BLOCK_END

; external perimeters extrusion width = 0.40mm
; perimeters extrusion width = 0.45mm
; infill extrusion width = 0.45mm
; solid infill extrusion width = 0.45mm
; top infill extrusion width = 0.38mm
; support material extrusion width = 0.38mm
; first layer extrusion width = 0.45mm

; EXECUTABLE_BLOCK_START
M73 P0 R35
M201 X500 Y500 Z100 E5000
M203 X500 Y500 Z10 E60
M204 P500 R1000 T500
M205 X8.00 Y8.00 Z0.40 E5.00 ; sets the jerk limits, mm/sec
;TYPE:Custom
G90 ; use absolute coordinates
M83 ; extruder relative mode
M140 S55 ; set final bed temp
M104 S150 ; set temporary nozzle temp to prevent oozing during homing
G4 S10 ; allow partial nozzle warmup
G28 ; home all axis
G1 Z50 F240
G1 X2 Y10 F3000
M104 S205 ; set final nozzle temp
M190 S55 ; wait for bed temp to stabilize
M109 S205 ; wait for nozzle temp to stabilize
G1 Z0.28 F240
G92 E0
G1 Y140 E10 F1500 ; prime the nozzle
M73 P1 R35
G1 X2.3 F5000
G92 E0
M73 P1 R34
G1 Y10 E10 F1200 ; prime the nozzle
G92 E0
G90
G21
M83 ; use relative distances for extrusion
; filament start gcode
M106 S0
;LAYER_CHANGE
;Z:0.2
;HEIGHT:0.2
;BEFORE_LAYER_CHANGE
;0.2
G92 E0

G1 E-5 F3600
;_SET_FAN_SPEED_CHANGING_LAYER
G1 X97.428 Y97.428 F9000
G1 Z.2
G1 E5 F2400
;TYPE:Skirt
;WIDTH:0.45
G1 F3000
G1 X98.293 Y96.563 E.04059
G1 X99.284 Y95.848 E.04053
G1 X103.581 Y93.7 E.15935
G1 X105.287 Y93.297 E.05814
G1 X113.102 Y93.297 E.25924
G1 X113.85 Y93.371 E.02493
G1 X116.535 Y93.908 E.09084
G1 X117.493 Y94.237 E.03359
G1 X120.224 Y95.671 E.10233
G1 X122.9 Y97.756 E.11253
G1 X124.866 Y100.313 E.10698
G1 X125.356 Y101.185 E.03318
G1 X126.43 Y103.87 E.09594
G1 X126.703 Y105.287 E.04785
G1 X126.703 Y114.713 E.31269
G1 X126.43 Y116.13 E.04785
G1 X125.356 Y118.815 E.09594
G1 X124.866 Y119.687 E.03318
G1 X122.9 Y122.244 E.10698
G1 X120.224 Y124.329 E.11253
G1 X117.493 Y125.763 E.10233
G1 X116.535 Y126.092 E.03359
G1 X113.85 Y126.629 E.09084
G1 X113.102 Y126.703 E.02493
G1 X105.287 Y126.703 E.25924
G1 X103.581 Y126.3 E.05814
G1 X99.284 Y124.152 E.15935
G1 X98.293 Y123.437 E.04053
G1 X96.026 Y121.17 E.10638
G1 X95.311 Y120.179 E.04053
G1 X94.237 Y118.03 E.07968
G1 X93.948 Y117.25 E.02761
G1 X93.411 Y115.101 E.07346
G1 X93.297 Y114.176 E.03092
G1 X93.297 Y105.824 E.27706
G1 X93.411 Y104.899 E.03092
G1 X93.948 Y102.751 E.07346
G1 X94.237 Y101.97 E.02761
G1 X95.311 Y99.822 E.07968
G1 X96.026 Y98.83 E.04053
G1 X97.4 Y97.456 E.06446
G1 X97.687 Y97.744 F9000
G1 F3000
G1 X98.581 Y96.85 E.04192
G1 X99.466 Y96.212 E.03621
G1 X103.763 Y94.064 E.15935
G1 X105.287 Y93.704 E.05193
G1 X113.102 Y93.704 E.25924
G1 X113.77 Y93.77 E.02227
G1 X116.456 Y94.307 E.09084
G1 X117.311 Y94.601 E.03
G1 X119.98 Y95.997 E.09991
G1 X122.612 Y98.044 E.11062
G1 X124.54 Y100.557 E.10507
G1 X124.978 Y101.336 E.02964
G1 X126.052 Y104.021 E.09594
G1 X126.296 Y105.287 E.04275
G1 X126.296 Y114.713 E.31269
G1 X126.052 Y115.979 E.04275
G1 X124.978 Y118.664 E.09594
G1 X124.54 Y119.443 E.02964
G1 X122.612 Y121.956 E.10507
G1 X119.98 Y124.003 E.11062
G1 X117.311 Y125.399 E.09991
G1 X116.456 Y125.693 E.03
G1 X113.77 Y126.23 E.09084
G1 X113.102 Y126.296 E.02227
G1 X105.287 Y126.296 E.25924
G1 X103.763 Y125.936 E.05193
G1 X99.466 Y123.788 E.15935
G1 X98.581 Y123.15 E.03621
G1 X96.313 Y120.882 E.10638
G1 X95.675 Y119.996 E.03621
G1 X94.601 Y117.848 E.07968
M73 P2 R34
G1 X94.343 Y117.151 E.02466
G1 X93.806 Y115.002 E.07346
G1 X93.704 Y114.176 E.02762
G1 X93.704 Y105.824 E.27706
G1 X93.806 Y104.998 E.02762
G1 X94.343 Y102.849 E.07346
G1 X94.601 Y102.152 E.02466
G1 X95.675 Y100.004 E.07968
G1 X96.313 Y99.118 E.03621
G1 X97.659 Y97.772 E.06313
; printing object ТрибПриводаНожа-BodyPolarPattern.stl id:18296152663326785 copy 0
G1 E-3.8 F3600
;WIPE_START
G1 F3000
G1 X98.366 Y97.065 E-1.2
;WIPE_END
G1 X113.018 Y97.852 F9000
G1 E5 F2400
;TYPE:Support
G1 F1200
G1 X115.703 Y97.852 E.08908
G1 X115.703 Y98.926 E.03563
G1 X117.851 Y98.926 E.07126
G1 X117.851 Y100.537 E.05345
G1 X120 Y100.537 E.07126
G1 X120 Y102.686 E.07126
G1 X121.611 Y102.686 E.05345
G1 X121.611 Y104.834 E.07126
G1 X122.148 Y104.834 E.01782
G1 X122.148 Y105.371 E.01782
G1 X122.685 Y105.371 E.01782
G1 X122.685 Y114.629 E.30709
G1 X122.148 Y114.629 E.01782
G1 X122.148 Y115.166 E.01782
G1 X121.611 Y115.166 E.01782
G1 X121.611 Y117.314 E.07126
G1 X120 Y117.314 E.05345
G1 X120 Y119.463 E.07126
G1 X117.851 Y119.463 E.07126
G1 X117.851 Y121.074 E.05345
G1 X115.703 Y121.074 E.07126
G1 X115.703 Y122.148 E.03563
G1 X113.018 Y122.148 E.08908
G1 X113.018 Y122.685 E.01782
G1 X105.371 Y122.685 E.25365
G1 X105.371 Y121.611 E.03563
G1 X103.223 Y121.611 E.07126
G1 X103.223 Y120.537 E.03563
G1 X101.075 Y120.537 E.07126
G1 X101.075 Y118.388 E.07126
G1 X98.926 Y118.388 E.07126
G1 X98.926 Y116.24 E.07126
G1 X97.852 Y116.24 E.03563
G1 X97.852 Y114.092 E.07126
G1 X97.315 Y114.092 E.01782
G1 X97.315 Y105.908 E.27146
G1 X97.852 Y105.908 E.01782
G1 X97.852 Y103.76 E.07126
G1 X98.926 Y103.76 E.03563
G1 X98.926 Y101.612 E.07126
G1 X101.075 Y101.612 E.07126
G1 X101.075 Y99.463 E.07126
G1 X103.223 Y99.463 E.07126
G1 X103.223 Y98.389 E.03563
G1 X105.371 Y98.389 E.07126
G1 X105.371 Y97.315 E.03563
G1 X113.018 Y97.315 E.25365
G1 X113.018 Y97.791 E.01579
G1 X109.586 Y106.797 F9000
G1 F1200
G1 X108.83 Y106.983 E.0258
G1 X108.142 Y107.345 E.0258
G1 X107.559 Y107.861 E.0258
G1 X107.117 Y108.501 E.0258
G1 X106.842 Y109.228 E.0258
G1 X106.748 Y110 E.0258
G1 X106.842 Y110.773 E.0258
G1 X107.117 Y111.5 E.0258
G1 X107.559 Y112.14 E.0258
G1 X108.142 Y112.656 E.0258
G1 X108.83 Y113.017 E.0258
G1 X109.586 Y113.204 E.0258
G1 X110.363 Y113.204 E.0258
G1 X111.119 Y113.017 E.0258
G1 X111.807 Y112.656 E.0258
G1 X112.39 Y112.14 E.0258
G1 X112.832 Y111.5 E.0258
G1 X113.107 Y110.773 E.0258
G1 X113.201 Y110 E.0258
G1 X113.107 Y109.228 E.0258
G1 X112.832 Y108.501 E.0258
G1 X112.39 Y107.861 E.0258
G1 X111.807 Y107.345 E.0258
G1 X111.119 Y106.983 E.0258
G1 X110.363 Y106.797 E.0258
G1 X109.647 Y106.797 E.02378
G1 X101.441 Y101.978 F9000
G1 F1200
G1 X101.441 Y99.83 E.07126
G1 X103.589 Y99.83 E.07126
G1 X103.589 Y98.756 E.03563
G1 X105.738 Y98.756 E.07126
G1 X105.738 Y97.681 E.03563
G1 X112.651 Y97.681 E.22934
G1 X112.651 Y98.218 E.01782
G1 X115.337 Y98.218 E.08908
G1 X115.337 Y99.293 E.03563
G1 X117.485 Y99.293 E.07126
G1 X117.485 Y100.904 E.05345
G1 X119.633 Y100.904 E.07126
G1 X119.633 Y103.052 E.07126
G1 X121.245 Y103.052 E.05345
G1 X121.245 Y105.2 E.07126
G1 X121.782 Y105.2 E.01782
G1 X121.782 Y105.738 E.01782
G1 X122.319 Y105.738 E.01782
G1 X122.319 Y114.262 E.28279
G1 X121.782 Y114.262 E.01782
G1 X121.782 Y114.8 E.01782
G1 X121.245 Y114.8 E.01782
G1 X121.245 Y116.948 E.07126
G1 X119.633 Y116.948 E.05345
G1 X119.633 Y119.096 E.07126
G1 X117.485 Y119.096 E.07126
G1 X117.485 Y120.707 E.05345
G1 X115.337 Y120.707 E.07126
G1 X115.337 Y121.782 E.03563
G1 X112.651 Y121.782 E.08908
G1 X112.651 Y122.319 E.01782
G1 X105.738 Y122.319 E.22934
G1 X105.738 Y121.245 E.03563
G1 X103.589 Y121.245 E.07126
G1 X103.589 Y120.17 E.03563
G1 X101.441 Y120.17 E.07126
G1 X101.441 Y118.022 E.07126
G1 X99.293 Y118.022 E.07126
G1 X99.293 Y115.874 E.07126
G1 X98.218 Y115.874 E.03563
G1 X98.218 Y113.725 E.07126
G1 X97.681 Y113.725 E.01782
G1 X97.681 Y106.275 E.24716
G1 X98.218 Y106.275 E.01782
G1 X98.218 Y104.126 E.07126
G1 X99.293 Y104.126 E.03563
G1 X99.293 Y101.978 E.07126
G1 X101.441 Y101.978 E.07126
G1 X101.893 Y102.43 F9000
G1 F1200
G1 X101.893 Y100.282 E.07126
G1 X104.042 Y100.282 E.07126
G1 X104.042 Y99.208 E.03563
G1 X106.19 Y99.208 E.07126
G1 X106.19 Y98.134 E.03563
G1 X112.199 Y98.134 E.19933
G1 X112.199 Y98.671 E.01782
G1 X114.884 Y98.671 E.08908
G1 X114.884 Y99.745 E.03563
G1 X117.033 Y99.745 E.07126
G1 X117.033 Y101.356 E.05345
G1 X119.181 Y101.356 E.07126
G1 X119.181 Y103.504 E.07126
G1 X120.792 Y103.504 E.05345
G1 X120.792 Y105.653 E.07126
G1 X121.329 Y105.653 E.01782
G1 X121.329 Y106.19 E.01782
G1 X121.866 Y106.19 E.01782
G1 X121.866 Y113.81 E.25278
G1 X121.329 Y113.81 E.01782
G1 X121.329 Y114.347 E.01782
G1 X120.792 Y114.347 E.01782
G1 X120.792 Y116.496 E.07126
G1 X119.181 Y116.496 E.05345
G1 X119.181 Y118.644 E.07126
G1 X117.033 Y118.644 E.07126
G1 X117.033 Y120.255 E.05345
G1 X114.884 Y120.255 E.07126
G1 X114.884 Y121.329 E.03563
G1 X112.199 Y121.329 E.08908
G1 X112.199 Y121.866 E.01782
G1 X106.19 Y121.866 E.19933
G1 X106.19 Y120.792 E.03563
G1 X104.042 Y120.792 E.07126
G1 X104.042 Y119.718 E.03563
G1 X101.893 Y119.718 E.07126
G1 X101.893 Y117.57 E.07126
G1 X99.745 Y117.57 E.07126
G1 X99.745 Y115.421 E.07126
G1 X98.671 Y115.421 E.03563
G1 X98.671 Y113.273 E.07126
G1 X98.134 Y113.273 E.01782
G1 X98.134 Y106.727 E.21715
G1 X98.671 Y106.727 E.01782
G1 X98.671 Y104.579 E.07126
G1 X99.745 Y104.579 E.03563
G1 X99.745 Y102.43 E.07126
G1 X101.893 Y102.43 E.07126
G1 X102.346 Y102.883 F9000
G1 F1200
G1 X102.346 Y100.734 E.07126
G1 X104.494 Y100.734 E.07126
G1 X104.494 Y99.66 E.03563
G1 X106.642 Y99.66 E.07126
G1 X106.642 Y98.586 E.03563
G1 X111.747 Y98.586 E.16932
G1 X111.747 Y99.123 E.01782
G1 X114.432 Y99.123 E.08908
G1 X114.432 Y100.197 E.03563
G1 X116.58 Y100.197 E.07126
G1 X116.58 Y101.808 E.05345
G1 X118.729 Y101.808 E.07126
G1 X118.729 Y103.957 E.07126
G1 X120.34 Y103.957 E.05345
G1 X120.34 Y106.105 E.07126
G1 X120.877 Y106.105 E.01782
G1 X120.877 Y106.642 E.01782
M73 P3 R34
G1 X121.414 Y106.642 E.01782
G1 X121.414 Y113.358 E.22277
G1 X120.877 Y113.358 E.01782
G1 X120.877 Y113.895 E.01782
G1 X120.34 Y113.895 E.01782
G1 X120.34 Y116.043 E.07126
G1 X118.729 Y116.043 E.05345
G1 X118.729 Y118.192 E.07126
G1 X116.58 Y118.192 E.07126
G1 X116.58 Y119.803 E.05345
G1 X114.432 Y119.803 E.07126
G1 X114.432 Y120.877 E.03563
G1 X111.747 Y120.877 E.08908
G1 X111.747 Y121.414 E.01782
G1 X106.642 Y121.414 E.16932
G1 X106.642 Y120.34 E.03563
G1 X104.494 Y120.34 E.07126
G1 X104.494 Y119.266 E.03563
G1 X102.346 Y119.266 E.07126
G1 X102.346 Y117.117 E.07126
G1 X100.197 Y117.117 E.07126
G1 X100.197 Y114.969 E.07126
G1 X99.123 Y114.969 E.03563
G1 X99.123 Y112.821 E.07126
G1 X98.586 Y112.821 E.01782
G1 X98.586 Y107.179 E.18714
G1 X99.123 Y107.179 E.01782
G1 X99.123 Y105.031 E.07126
G1 X100.197 Y105.031 E.03563
G1 X100.197 Y102.883 E.07126
G1 X102.346 Y102.883 E.07126
G1 X102.798 Y103.335 F9000
G1 F1200
G1 X102.798 Y101.187 E.07126
G1 X104.946 Y101.187 E.07126
G1 X104.946 Y100.112 E.03563
G1 X107.094 Y100.112 E.07126
G1 X107.094 Y99.038 E.03563
G1 X111.294 Y99.038 E.13932
G1 X111.294 Y99.575 E.01782
G1 X113.98 Y99.575 E.08908
G1 X113.98 Y100.65 E.03563
G1 X116.128 Y100.65 E.07126
G1 X116.128 Y102.261 E.05345
G1 X118.276 Y102.261 E.07126
G1 X118.276 Y104.409 E.07126
G1 X119.888 Y104.409 E.05345
G1 X119.888 Y106.557 E.07126
G1 X120.425 Y106.557 E.01782
G1 X120.425 Y107.094 E.01782
G1 X120.962 Y107.094 E.01782
G1 X120.962 Y112.906 E.19276
G1 X120.425 Y112.906 E.01782
G1 X120.425 Y113.443 E.01782
G1 X119.888 Y113.443 E.01782
G1 X119.888 Y115.591 E.07126
G1 X118.276 Y115.591 E.05345
G1 X118.276 Y117.739 E.07126
G1 X116.128 Y117.739 E.07126
G1 X116.128 Y119.351 E.05345
G1 X113.98 Y119.351 E.07126
G1 X113.98 Y120.425 E.03563
G1 X111.294 Y120.425 E.08908
G1 X111.294 Y120.962 E.01782
G1 X107.094 Y120.962 E.13932
G1 X107.094 Y119.888 E.03563
G1 X104.946 Y119.888 E.07126
G1 X104.946 Y118.813 E.03563
G1 X102.798 Y118.813 E.07126
G1 X102.798 Y116.665 E.07126
G1 X100.65 Y116.665 E.07126
G1 X100.65 Y114.517 E.07126
G1 X99.575 Y114.517 E.03563
G1 X99.575 Y112.368 E.07126
G1 X99.038 Y112.368 E.01782
G1 X99.038 Y107.632 E.15713
G1 X99.575 Y107.632 E.01782
G1 X99.575 Y105.483 E.07126
G1 X100.65 Y105.483 E.03563
G1 X100.65 Y103.335 E.07126
G1 X102.798 Y103.335 E.07126
G1 X103.25 Y103.787 F9000
G1 F1200
G1 X103.25 Y101.639 E.07126
G1 X105.398 Y101.639 E.07126
G1 X105.398 Y100.565 E.03563
G1 X107.547 Y100.565 E.07126
G1 X107.547 Y99.491 E.03563
G1 X110.842 Y99.491 E.10931
G1 X110.842 Y100.028 E.01782
G1 X113.527 Y100.028 E.08908
G1 X113.527 Y101.102 E.03563
G1 X115.676 Y101.102 E.07126
G1 X115.676 Y102.713 E.05345
G1 X117.824 Y102.713 E.07126
G1 X117.824 Y104.861 E.07126
G1 X119.435 Y104.861 E.05345
G1 X119.435 Y107.01 E.07126
G1 X119.972 Y107.01 E.01782
G1 X119.972 Y107.547 E.01782
G1 X120.509 Y107.547 E.01782
G1 X120.509 Y112.453 E.16276
G1 X119.972 Y112.453 E.01782
G1 X119.972 Y112.99 E.01782
G1 X119.435 Y112.99 E.01782
G1 X119.435 Y115.139 E.07126
G1 X117.824 Y115.139 E.05345
G1 X117.824 Y117.287 E.07126
G1 X115.676 Y117.287 E.07126
G1 X115.676 Y118.898 E.05345
G1 X113.527 Y118.898 E.07126
G1 X113.527 Y119.972 E.03563
G1 X110.842 Y119.972 E.08908
G1 X110.842 Y120.509 E.01782
G1 X107.547 Y120.509 E.10931
G1 X107.547 Y119.435 E.03563
G1 X105.398 Y119.435 E.07126
G1 X105.398 Y118.361 E.03563
G1 X103.25 Y118.361 E.07126
G1 X103.25 Y116.213 E.07126
G1 X101.102 Y116.213 E.07126
G1 X101.102 Y114.064 E.07126
G1 X100.028 Y114.064 E.03563
G1 X100.028 Y111.916 E.07126
G1 X99.491 Y111.916 E.01782
G1 X99.491 Y108.084 E.12712
G1 X100.028 Y108.084 E.01782
G1 X100.028 Y105.936 E.07126
G1 X101.102 Y105.936 E.03563
G1 X101.102 Y103.787 E.07126
G1 X103.25 Y103.787 E.07126
G1 X103.702 Y104.24 F9000
G1 F1200
G1 X103.702 Y102.091 E.07126
G1 X105.851 Y102.091 E.07126
G1 X105.851 Y101.017 E.03563
G1 X107.999 Y101.017 E.07126
G1 X107.999 Y99.943 E.03563
G1 X110.39 Y99.943 E.0793
G1 X110.39 Y100.48 E.01782
G1 X113.075 Y100.48 E.08908
G1 X113.075 Y101.554 E.03563
G1 X115.223 Y101.554 E.07126
G1 X115.223 Y103.165 E.05345
G1 X117.372 Y103.165 E.07126
G1 X117.372 Y105.314 E.07126
G1 X118.983 Y105.314 E.05345
G1 X118.983 Y107.462 E.07126
G1 X119.52 Y107.462 E.01782
G1 X119.52 Y107.999 E.01782
G1 X120.057 Y107.999 E.01782
G1 X120.057 Y112.001 E.13275
G1 X119.52 Y112.001 E.01782
G1 X119.52 Y112.538 E.01782
G1 X118.983 Y112.538 E.01782
G1 X118.983 Y114.686 E.07126
G1 X117.372 Y114.686 E.05345
G1 X117.372 Y116.835 E.07126
G1 X115.223 Y116.835 E.07126
G1 X115.223 Y118.446 E.05345
G1 X113.075 Y118.446 E.07126
G1 X113.075 Y119.52 E.03563
G1 X110.39 Y119.52 E.08908
G1 X110.39 Y120.057 E.01782
G1 X107.999 Y120.057 E.0793
G1 X107.999 Y118.983 E.03563
G1 X105.851 Y118.983 E.07126
G1 X105.851 Y117.909 E.03563
G1 X103.702 Y117.909 E.07126
G1 X103.702 Y115.76 E.07126
G1 X101.554 Y115.76 E.07126
G1 X101.554 Y113.612 E.07126
G1 X100.48 Y113.612 E.03563
G1 X100.48 Y111.464 E.07126
G1 X99.943 Y111.464 E.01782
G1 X99.943 Y108.536 E.09712
G1 X100.48 Y108.536 E.01782
G1 X100.48 Y106.388 E.07126
G1 X101.554 Y106.388 E.03563
G1 X101.554 Y104.24 E.07126
G1 X103.702 Y104.24 E.07126
G1 X104.155 Y104.692 F9000
G1 F1200
G1 X104.155 Y102.544 E.07126
G1 X106.303 Y102.544 E.07126
G1 X106.303 Y101.469 E.03563
G1 X108.451 Y101.469 E.07126
G1 X108.451 Y100.395 E.03563
G1 X109.937 Y100.395 E.04929
G1 X109.937 Y100.932 E.01782
G1 X112.623 Y100.932 E.08908
G1 X112.623 Y102.006 E.03563
G1 X114.771 Y102.006 E.07126
G1 X114.771 Y103.618 E.05345
G1 X116.919 Y103.618 E.07126
G1 X116.919 Y105.766 E.07126
G1 X118.531 Y105.766 E.05345
G1 X118.531 Y107.914 E.07126
G1 X119.068 Y107.914 E.01782
G1 X119.068 Y108.451 E.01782
G1 X119.605 Y108.451 E.01782
G1 X119.605 Y111.549 E.10274
G1 X119.068 Y111.549 E.01782
G1 X119.068 Y112.086 E.01782
G1 X118.531 Y112.086 E.01782
G1 X118.531 Y114.234 E.07126
G1 X116.919 Y114.234 E.05345
G1 X116.919 Y116.382 E.07126
G1 X114.771 Y116.382 E.07126
G1 X114.771 Y117.994 E.05345
G1 X112.623 Y117.994 E.07126
G1 X112.623 Y119.068 E.03563
G1 X109.937 Y119.068 E.08908
G1 X109.937 Y119.605 E.01782
G1 X108.451 Y119.605 E.04929
G1 X108.451 Y118.531 E.03563
M73 P4 R34
G1 X106.303 Y118.531 E.07126
G1 X106.303 Y117.457 E.03563
G1 X104.155 Y117.457 E.07126
G1 X104.155 Y115.308 E.07126
G1 X102.006 Y115.308 E.07126
G1 X102.006 Y113.16 E.07126
G1 X100.932 Y113.16 E.03563
G1 X100.932 Y111.012 E.07126
G1 X100.395 Y111.012 E.01782
G1 X100.395 Y108.988 E.06711
G1 X100.932 Y108.988 E.01782
G1 X100.932 Y106.84 E.07126
G1 X102.006 Y106.84 E.03563
